assets/Kissing cat/Flat/kissing_cat_flat.svg

<svg width="32" height="32" viewBox="0 0 32 32" fill="none" xmlns="http://www.w3.org/2000/svg">
<path d="M4 25.942C4 28.1739 5.76327 30 7.91837 30H24.0816C26.2367 30 28 28.0725 28 25.8406V6.4297C28 5.1297 26.4099 4.5297 25.5155 5.4297L20.9736 10H11.1617L6.5 5.4297C5.6 4.5297 4 5.1297 4 6.4297V25.942Z" fill="#FFB02E"/>
<path d="M9.00005 10.9265L6.20005 13.5265C5.70005 14.0265 4.80005 13.6265 4.80005 12.9265V7.72648C4.80005 7.12648 5.70005 6.72648 6.20005 7.22648L9.00005 9.82648C9.30005 10.1265 9.30005 10.6265 9.00005 10.9265Z" fill="#FF822D"/>
<path d="M23.05 10.9265L25.85 13.5265C26.35 14.0265 27.25 13.6265 27.25 12.9265V7.72648C27.25 7.12648 26.35 6.72648 25.85 7.22648L23.05 9.82648C22.75 10.1265 22.75 10.6265 23.05 10.9265Z" fill="#FF822D"/>
<path d="M17.0429 20H14.9571C14.5117 20 14.2886 20.5386 14.6036 20.8536L15.6464 21.8964C15.8417 22.0917 16.1583 22.0917 16.3536 21.8964L17.3964 20.8536C17.7114 20.5386 17.4883 20 17.0429 20Z" fill="#F70A8D"/>
<path d="M2.72372 20.0528C2.47673 19.9293 2.17639 20.0294 2.0529 20.2764C1.9294 20.5234 2.02951 20.8237 2.2765 20.9472L6.2765 22.9472C6.52349 23.0707 6.82383 22.9706 6.94732 22.7236C7.07082 22.4766 6.97071 22.1763 6.72372 22.0528L2.72372 20.0528Z" fill="#FF6723"/>
<path d="M2.72372 26.9472C2.47673 27.0707 2.17639 26.9706 2.0529 26.7236C1.9294 26.4766 2.02951 26.1763 2.2765 26.0528L6.2765 24.0528C6.52349 23.9293 6.82383 24.0294 6.94732 24.2764C7.07082 24.5234 6.97071 24.8237 6.72372 24.9472L2.72372 26.9472Z" fill="#FF6723"/>
<path d="M29.9473 20.2764C29.8238 20.0294 29.5235 19.9293 29.2765 20.0528L25.2765 22.0528C25.0295 22.1763 24.9294 22.4766 25.0529 22.7236C25.1764 22.9706 25.4767 23.0707 25.7237 22.9472L29.7237 20.9472C29.9707 20.8237 30.0708 20.5234 29.9473 20.2764Z" fill="#FF6723"/>
<path d="M29.2765 26.9472C29.5235 27.0707 29.8238 26.9706 29.9473 26.7236C30.0708 26.4766 29.9707 26.1763 29.7237 26.0528L25.7237 24.0528C25.4767 23.9293 25.1764 24.0294 25.0529 24.2764C24.9294 24.5234 25.0295 24.8237 25.2765 24.9472L29.2765 26.9472Z" fill="#FF6723"/>
<path d="M11.2058 18.8547C11.0551 19.0639 11 19.33 11 19.5C11 19.7761 10.7761 20 10.5 20C10.2239 20 10 19.7761 10 19.5C10 19.17 10.0949 18.6861 10.3942 18.2703C10.7119 17.8291 11.237 17.5 12 17.5C12.763 17.5 13.2881 17.8291 13.6058 18.2703C13.9051 18.6861 14 19.17 14 19.5C14 19.7761 13.7761 20 13.5 20C13.2239 20 13 19.7761 13 19.5C13 19.33 12.9449 19.0639 12.7942 18.8547C12.6619 18.6709 12.437 18.5 12 18.5C11.563 18.5 11.3381 18.6709 11.2058 18.8547Z" fill="#402A32"/>
<path d="M19.2058 18.8547C19.0551 19.0639 19 19.33 19 19.5C19 19.7761 18.7761 20 18.5 20C18.2239 20 18 19.7761 18 19.5C18 19.17 18.0949 18.6861 18.3942 18.2703C18.7119 17.8291 19.237 17.5 20 17.5C20.763 17.5 21.2881 17.8291 21.6058 18.2703C21.9051 18.6861 22 19.17 22 19.5C22 19.7761 21.7761 20 21.5 20C21.2239 20 21 19.7761 21 19.5C21 19.33 20.9449 19.0639 20.7942 18.8547C20.6619 18.6709 20.437 18.5 20 18.5C19.563 18.5 19.3381 18.6709 19.2058 18.8547Z" fill="#402A32"/>
<path d="M15 23.5C15 23.2239 15.2239 23 15.5 23C15.9462 23 16.4256 23.163 16.8 23.4437C17.1778 23.7271 17.5 24.1738 17.5 24.75C17.5 25.2895 17.2176 25.7154 16.8716 26C17.2176 26.2846 17.5 26.7105 17.5 27.25C17.5 27.8262 17.1778 28.2729 16.8 28.5562C16.4256 28.837 15.9462 29 15.5 29C15.2239 29 15 28.7761 15 28.5C15 28.2239 15.2239 28 15.5 28C15.7204 28 15.991 27.913 16.2 27.7563C16.4056 27.6021 16.5 27.4238 16.5 27.25C16.5 27.0762 16.4056 26.8979 16.2 26.7437C15.991 26.587 15.7204 26.5 15.5 26.5C15.2239 26.5 15 26.2761 15 26C15 25.7239 15.2239 25.5 15.5 25.5C15.7204 25.5 15.991 25.413 16.2 25.2562C16.4056 25.1021 16.5 24.9238 16.5 24.75C16.5 24.5762 16.4056 24.3979 16.2 24.2438C15.991 24.087 15.7204 24 15.5 24C15.2239 24 15 23.7761 15 23.5Z" fill="#402A32"/>
<path d="M28.4403 21.1794C27.6244 20.8787 26.5575 21.4264 26.5575 21.4264C26.5575 21.4264 26.4948 20.2021 25.8358 19.6329C24.2041 18.2261 22.5306 19.4074 22.1435 20.8142C21.4637 23.3057 23.4196 27 23.4196 27C23.4196 27 27.5198 26.9033 29.2875 25.0562C30.2707 24.0145 30.4485 21.9311 28.4403 21.1794Z" fill="#CA0B4A"/>
</svg>

<svg xmlns="http://www.w3.org/2000/svg" width="32" height="32" fill="none"><path fill="#FFB02E" d="M4 25.942C4 28.174 5.763 30 7.918 30h16.164C26.237 30 28 28.073 28 25.84V6.43c0-1.3-1.59-1.9-2.485-1L20.974 10h-9.812L6.5 5.43c-.9-.9-2.5-.3-2.5 1v19.512Z"/><path fill="#FF822D" d="m9 10.927-2.8 2.6c-.5.5-1.4.1-1.4-.6v-5.2c0-.6.9-1 1.4-.5l2.8 2.6c.3.3.3.8 0 1.1ZM23.05 10.927l2.8 2.6c.5.5 1.4.1 1.4-.6v-5.2c0-.6-.9-1-1.4-.5l-2.8 2.6c-.3.3-.3.8 0 1.1Z"/><path fill="#F70A8D" d="M17.043 20h-2.086a.5.5 0 0 0-.353.854l1.042 1.042a.5.5 0 0 0 .708 0l1.042-1.042a.5.5 0 0 0-.353-.854Z"/><path fill="#FF6723" d="M2.724 20.053a.5.5 0 1 0-.448.894l4 2a.5.5 0 1 0 .448-.894l-4-2ZM2.724 26.947a.5.5 0 1 1-.448-.894l4-2a.5.5 0 1 1 .448.894l-4 2ZM29.947 20.276a.5.5 0 0 0-.67-.223l-4 2a.5.5 0 1 0 .447.894l4-2a.5.5 0 0 0 .223-.67ZM29.276 26.947a.5.5 0 1 0 .448-.894l-4-2a.5.5 0 1 0-.448.894l4 2Z"/><path fill="#402A32" d="M11.206 18.855c-.15.209-.206.475-.206.645a.5.5 0 0 1-1 0c0-.33.095-.814.394-1.23.318-.44.843-.77 1.606-.77.763 0 1.288.33 1.606.77.3.416.394.9.394 1.23a.5.5 0 0 1-1 0c0-.17-.055-.436-.206-.645-.132-.184-.357-.355-.794-.355-.437 0-.662.17-.794.355ZM19.206 18.855c-.15.209-.206.475-.206.645a.5.5 0 0 1-1 0c0-.33.095-.814.394-1.23.318-.44.843-.77 1.606-.77.763 0 1.288.33 1.606.77.3.416.394.9.394 1.23a.5.5 0 0 1-1 0c0-.17-.055-.436-.206-.645-.132-.184-.357-.355-.794-.355-.437 0-.662.17-.794.355ZM15 23.5a.5.5 0 0 1 .5-.5c.446 0 .926.163 1.3.444.378.283.7.73.7 1.306 0 .54-.282.965-.628 1.25.346.285.628.71.628 1.25 0 .576-.322 1.023-.7 1.306a2.23 2.23 0 0 1-1.3.444.5.5 0 0 1 0-1c.22 0 .491-.087.7-.244.206-.154.3-.332.3-.506s-.094-.352-.3-.506a1.233 1.233 0 0 0-.7-.244.5.5 0 0 1 0-1c.22 0 .491-.087.7-.244.206-.154.3-.332.3-.506s-.094-.352-.3-.506a1.233 1.233 0 0 0-.7-.244.5.5 0 0 1-.5-.5Z"/><path fill="#CA0B4A" d="M28.44 21.18c-.816-.301-1.883.246-1.883.246s-.062-1.224-.721-1.793c-1.632-1.407-3.305-.226-3.692 1.181C21.463 23.306 23.42 27 23.42 27s4.1-.097 5.867-1.944c.984-1.041 1.162-3.125-.847-3.877Z"/></svg>
